**kern	**kern	**dynam
*part1	*part1	*part1
*staff2	*staff1	*
*I"Piano	*	*
*clefF4	*clefG2	*
*k[b-e-a-d-]	*k[b-e-a-d-]	*
=1	=1	=1
*^	*^	*
8r	4.AA-	8.fL 8.dd-	4.g	.
(8B-L	.	.	.	.
.	.	16e-K 16cc	.	[ >
8E-J)	.	8d-J) 8b-	.	.
*	*	*v	*v	*
=	=	=	=
8r	4.AA-	(4e- 4a- 4cc	] <
(8A-L	.	.	.
8E-J)	.	8a- 8cc 8ee-	.
=	=	=	=
*	*	*^	*
8r	4.AA-	8.fL 8.dd-	4.g	[ >
(8B-L	.	.	.	.
.	.	16e-K 16cc	.	.
8E-J)	.	8d-J) 8b-	.	.
*	*	*v	*v	*
=	=	=	=
!	!	!LO:TX:b:i:t=dim.	!
8r	4.AA-	(4.c 4.e- 4.a- 4.cc	]
(8A-L	.	.	.
8E-J)	.	.	.
=	=	=	=
8r	4.AA-	4.e- 4.b- 4.ee-	.
(8B-L	.	.	.
8E-J)	.	.	.
=	=	=	=
!	!	!LO:TX:b:i:t=rall.	!
8r	4.FF	4.a- 4.cc 4.ff 4.aa-	.
(8FL 8A-	.	.	.
8CJ)	.	.	.
=	=	=	=
8r	4.EE-	4.ee- 4.gg 4.bb- 4.eee-	.
(8GL 8B-	.	.	.
8E-J)	.	.	.
=	=	=	=
8r	4.AAA- 4.AA-	[4.aa-) [4.ccc [4.eee- [4.aaa-	pp
(8A-L 8c	.	.	.
8E-J)	.	.	.
=	=	=	=
8r	4.AAA- 4.AA-	4.aa-_ 4.ccc_ 4.eee-_ 4.aaa-_	.
(8A-L 8c	.	.	.
8E-J)	.	.	.
*v	*v	*	*
=	=	=
8AAA- 8AA-	8aa-] 8ccc] 8eee-] 8aaa-]	.
8r	8r	.
8r	8r	.
==	==	==
*-	*-	*-
!!!system-decoration: {(s1,s2)}
